; generated by PrusaSlicer 2.3.3+linux-x64-GTK3 on 2021-10-24 at 08:30:45 UTC

; 

; external perimeters extrusion width = 0.45mm
; perimeters extrusion width = 0.45mm
; infill extrusion width = 0.45mm
; solid infill extrusion width = 0.45mm
; top infill extrusion width = 0.40mm
; first layer extrusion width = 0.42mm

M73 P0 R16
M73 Q0 S16
M201 X1000 Y1000 Z200 E5000 ; sets maximum accelerations, mm/sec^2
M203 X200 Y200 Z12 E120 ; sets maximum feedrates, mm/sec
M204 P1250 R1250 T1250 ; sets acceleration (P, T) and retract acceleration (R), mm/sec^2
M205 X8.00 Y8.00 Z0.40 E4.50 ; sets the jerk limits, mm/sec
M205 S0 T0 ; sets the minimum extruding and travel feed rate, mm/sec
M107
;TYPE:Custom
M862.3 P "MK3" ; printer model check
M862.1 P0.4 ; nozzle diameter check
M115 U3.10.0 ; tell printer latest fw version
G90 ; use absolute coordinates
M83 ; extruder relative mode
M104 S215 ; set extruder temp
M140 S60 ; set bed temp
M190 S60 ; wait for bed temp
M109 S215 ; wait for extruder temp
G28 W ; home all without mesh bed level
G80 ; mesh bed leveling
G1 Y-3.0 F1000.0 ; go outside print area
G92 E0.0
G1 X60.0 E9.0 F1000.0 ; intro line
G1 X100.0 E12.5 F1000.0 ; intro line
G92 E0.0
M221 S95

; Don't change E values below. Excessive value can damage the printer.

M907 E538 ; set extruder motor current
G21 ; set units to millimeters
G90 ; use absolute coordinates
M83 ; use relative distances for extrusion
M900 K0.05 ; Filament gcode LA 1.5
M900 K30 ; Filament gcode LA 1.0
;LAYER_CHANGE
;Z:0.2
;HEIGHT:0.2
;BEFORE_LAYER_CHANGE
G92 E0.0
;0.2


G1 E-0.80000 F2100.000
G1 Z0.400 F10800.000
;AFTER_LAYER_CHANGE
;0.2
G1 X108.437 Y91.406
M73 P0 R15
G1 Z0.200
G1 E0.80000 F2100.000
M204 S1000
;TYPE:Skirt
;WIDTH:0.42
G1 F1200.000
G1 X109.850 Y89.848 E0.06594
G1 X111.408 Y88.436 E0.06593
G1 X113.097 Y87.183 E0.06593
G1 X114.901 Y86.102 E0.06593
G1 X116.801 Y85.203 E0.06593
G1 X118.781 Y84.495 E0.06593
G1 X120.821 Y83.984 E0.06593
G1 X122.901 Y83.676 E0.06593
G1 X125.005 Y83.573 E0.06605
G1 X127.102 Y83.676 E0.06581
G1 X129.182 Y83.985 E0.06593
G1 X131.221 Y84.496 E0.06593
G1 X133.201 Y85.204 E0.06593
G1 X135.102 Y86.104 E0.06593
G1 X136.905 Y87.185 E0.06593
G1 X138.594 Y88.437 E0.06592
G1 X140.152 Y89.850 E0.06594
G1 X141.564 Y91.408 E0.06593
G1 X142.817 Y93.097 E0.06593
M73 Q1 S16
G1 X143.898 Y94.901 E0.06593
G1 X144.797 Y96.801 E0.06593
G1 X145.505 Y98.781 E0.06593
M73 P1 R15
G1 X146.016 Y100.821 E0.06593
G1 X146.324 Y102.901 E0.06593
G1 X146.427 Y105.001 E0.06593
G1 X146.324 Y107.102 E0.06593
G1 X146.015 Y109.182 E0.06593
G1 X145.504 Y111.221 E0.06593
G1 X144.796 Y113.201 E0.06593
G1 X143.896 Y115.102 E0.06593
G1 X142.815 Y116.905 E0.06593
G1 X141.563 Y118.594 E0.06592
G1 X140.150 Y120.152 E0.06594
G1 X138.592 Y121.564 E0.06593
G1 X136.903 Y122.817 E0.06593
G1 X135.099 Y123.898 E0.06593
G1 X133.199 Y124.797 E0.06593
G1 X131.219 Y125.505 E0.06593
G1 X129.179 Y126.016 E0.06593
G1 X127.099 Y126.324 E0.06593
G1 X124.999 Y126.427 E0.06593
G1 X122.898 Y126.324 E0.06593
G1 X120.818 Y126.015 E0.06593
G1 X118.779 Y125.504 E0.06593
G1 X116.799 Y124.796 E0.06593
G1 X114.898 Y123.896 E0.06593
M73 Q1 S15
G1 X113.095 Y122.815 E0.06593
G1 X111.406 Y121.563 E0.06592
G1 X109.848 Y120.150 E0.06594
G1 X108.436 Y118.592 E0.06593
G1 X107.183 Y116.903 E0.06593
G1 X106.102 Y115.099 E0.06593
G1 X105.203 Y113.199 E0.06593
G1 X104.495 Y111.219 E0.06593
G1 X103.984 Y109.179 E0.06593
G1 X103.676 Y107.099 E0.06593
G1 X103.573 Y104.999 E0.06593
G1 X103.676 Y102.898 E0.06593
G1 X103.985 Y100.818 E0.06593
G1 X104.496 Y98.779 E0.06593
G1 X105.204 Y96.799 E0.06593
G1 X106.104 Y94.898 E0.06593
G1 X107.185 Y93.095 E0.06593
G1 X108.402 Y91.454 E0.06404
; printing object Cushion Supporter.stl id:0 copy 0
;WIPE_START
G1 F8640.000
G1 X109.850 Y89.848 E-0.49937
G1 X110.686 Y89.090 E-0.26063
;WIPE_END
G1 E-0.04000 F2100.000
G1 Z0.600 F10800.000
G1 X110.883 Y93.415
G1 Z0.200
G1 E0.80000 F2100.000
;TYPE:Perimeter
G1 F1200.000
G1 X112.087 Y92.087 E0.05619
G1 X113.415 Y90.883 E0.05619
G1 X114.854 Y89.816 E0.05619
G1 X116.391 Y88.894 E0.05619
G1 X118.011 Y88.128 E0.05619
G1 X119.699 Y87.524 E0.05619
G1 X121.437 Y87.089 E0.05619
G1 X123.210 Y86.826 E0.05619
G1 X125.000 Y86.738 E0.05619
G1 X126.790 Y86.826 E0.05619
G1 X128.563 Y87.089 E0.05619
G1 X130.301 Y87.524 E0.05619
G1 X131.989 Y88.128 E0.05619
G1 X133.609 Y88.894 E0.05619
G1 X135.146 Y89.816 E0.05619
G1 X136.585 Y90.883 E0.05619
G1 X137.913 Y92.087 E0.05619
G1 X139.117 Y93.415 E0.05619
G1 X140.184 Y94.854 E0.05619
G1 X141.106 Y96.391 E0.05619
G1 X141.872 Y98.011 E0.05619
G1 X142.476 Y99.699 E0.05619
G1 X142.911 Y101.437 E0.05619
G1 X143.174 Y103.210 E0.05619
G1 X143.262 Y105.000 E0.05619
G1 X143.174 Y106.790 E0.05619
G1 X142.911 Y108.563 E0.05619
G1 X142.476 Y110.301 E0.05619
G1 X141.872 Y111.989 E0.05619
G1 X141.106 Y113.609 E0.05619
G1 X140.184 Y115.146 E0.05619
G1 X139.117 Y116.585 E0.05619
G1 X137.913 Y117.913 E0.05619
G1 X136.585 Y119.117 E0.05619
G1 X135.146 Y120.184 E0.05619
G1 X133.609 Y121.106 E0.05619
G1 X131.989 Y121.872 E0.05619
G1 X130.301 Y122.476 E0.05619
G1 X128.563 Y122.911 E0.05619
G1 X126.790 Y123.174 E0.05619
G1 X125.000 Y123.262 E0.05619
G1 X123.210 Y123.174 E0.05619
G1 X121.437 Y122.911 E0.05619
G1 X119.699 Y122.476 E0.05619
G1 X118.011 Y121.872 E0.05619
G1 X116.391 Y121.106 E0.05619
G1 X114.854 Y120.184 E0.05619
G1 X113.415 Y119.117 E0.05619
M73 Q2 S15
G1 X112.087 Y117.913 E0.05619
G1 X110.883 Y116.585 E0.05619
G1 X109.816 Y115.146 E0.05619
M73 P2 R15
G1 X108.894 Y113.609 E0.05619
G1 X108.128 Y111.989 E0.05619
G1 X107.524 Y110.301 E0.05619
G1 X107.089 Y108.563 E0.05619
G1 X106.826 Y106.790 E0.05619
G1 X106.738 Y105.000 E0.05619
G1 X106.826 Y103.210 E0.05619
G1 X107.089 Y101.437 E0.05619
G1 X107.524 Y99.699 E0.05619
G1 X108.128 Y98.011 E0.05619
G1 X108.894 Y96.391 E0.05619
G1 X109.816 Y94.854 E0.05619
G1 X110.848 Y93.463 E0.05431
G1 X110.545 Y93.238 F10800.000
;TYPE:External perimeter
G1 F1200.000
G1 X111.820 Y91.820 E0.05981
G1 X113.175 Y90.591 E0.05735
G1 X114.644 Y89.502 E0.05735
G1 X116.213 Y88.561 E0.05735
G1 X117.867 Y87.779 E0.05735
G1 X119.589 Y87.163 E0.05735
G1 X121.364 Y86.719 E0.05735
G1 X123.173 Y86.450 E0.05735
G1 X125.000 Y86.360 E0.05735
G1 X126.827 Y86.450 E0.05735
G1 X128.636 Y86.719 E0.05735
G1 X130.411 Y87.163 E0.05735
G1 X132.133 Y87.779 E0.05735
G1 X133.787 Y88.561 E0.05735
G1 X135.356 Y89.502 E0.05735
G1 X136.825 Y90.591 E0.05735
G1 X138.180 Y91.820 E0.05735
G1 X139.409 Y93.175 E0.05735
G1 X140.498 Y94.644 E0.05735
G1 X141.439 Y96.213 E0.05735
G1 X142.221 Y97.867 E0.05735
G1 X142.837 Y99.589 E0.05735
G1 X143.281 Y101.364 E0.05735
G1 X143.550 Y103.173 E0.05735
G1 X143.640 Y105.000 E0.05735
G1 X143.550 Y106.827 E0.05735
G1 X143.281 Y108.636 E0.05735
G1 X142.837 Y110.411 E0.05735
G1 X142.221 Y112.133 E0.05735
G1 X141.439 Y113.787 E0.05735
G1 X140.498 Y115.356 E0.05735
G1 X139.409 Y116.825 E0.05735
G1 X138.180 Y118.180 E0.05735
G1 X136.825 Y119.409 E0.05735
G1 X135.356 Y120.498 E0.05735
G1 X133.787 Y121.439 E0.05735
G1 X132.133 Y122.221 E0.05735
G1 X130.411 Y122.837 E0.05735
G1 X128.636 Y123.281 E0.05735
G1 X126.827 Y123.550 E0.05735
G1 X125.000 Y123.640 E0.05735
G1 X123.173 Y123.550 E0.05735
G1 X121.364 Y123.281 E0.05735
G1 X119.589 Y122.837 E0.05735
G1 X117.867 Y122.221 E0.05735
G1 X116.213 Y121.439 E0.05735
G1 X114.644 Y120.498 E0.05735
G1 X113.175 Y119.409 E0.05735
G1 X111.820 Y118.180 E0.05735
G1 X110.591 Y116.825 E0.05735
G1 X109.502 Y115.356 E0.05735
G1 X108.561 Y113.787 E0.05735
G1 X107.779 Y112.133 E0.05735
G1 X107.163 Y110.411 E0.05735
G1 X106.719 Y108.636 E0.05735
G1 X106.450 Y106.827 E0.05735
G1 X106.360 Y105.000 E0.05735
G1 X106.450 Y103.173 E0.05735
G1 X106.719 Y101.364 E0.05735
G1 X107.163 Y99.589 E0.05735
G1 X107.779 Y97.867 E0.05735
G1 X108.561 Y96.213 E0.05735
G1 X109.502 Y94.644 E0.05735
G1 X110.509 Y93.287 E0.05301
G1 X110.939 Y93.302 F10800.000
;WIPE_START
G1 F8640.000
G1 X111.820 Y91.820 E-0.45422
G1 X112.801 Y90.931 E-0.30578
;WIPE_END
G1 E-0.04000 F2100.000
G1 Z0.600 F10800.000
G1 X136.059 Y90.634
G1 Z0.200
G1 E0.80000 F2100.000
;TYPE:Solid infill
;WIDTH:0.421411
G1 F1200.000
G1 X137.720 Y92.295 E0.07394
G1 X138.898 Y93.594 E0.05519
G1 X139.949 Y95.011 E0.05553
G1 X140.020 Y95.130 E0.00434
G1 X134.870 Y89.980 E0.22920
G1 X133.534 Y89.179 E0.04903
G1 X140.821 Y96.466 E0.32431
G1 X141.315 Y97.496 E0.03595
G1 X132.504 Y88.685 E0.39215
M73 P3 R15
M73 Q3 S15
G1 X131.880 Y88.390 E0.02173
G1 X131.559 Y88.275 E0.01074
G1 X141.725 Y98.441 E0.45248
G1 X142.023 Y99.275 E0.02786
G1 X130.725 Y87.977 E0.50285
G1 X130.219 Y87.795 E0.01693
G1 X129.939 Y87.725 E0.00909
G1 X142.275 Y100.061 E0.54906
G1 X142.454 Y100.775 E0.02317
G1 X129.225 Y87.546 E0.58880
G1 X128.510 Y87.367 E0.02317
G1 X142.633 Y101.490 E0.62855
G1 X142.726 Y102.119 E0.02001
G1 X127.881 Y87.274 E0.66071
G1 X127.253 Y87.181 E0.02000
G1 X142.819 Y102.747 E0.69283
G1 X142.898 Y103.361 E0.01949
G1 X126.639 Y87.102 E0.72367
G1 X126.076 Y87.074 E0.01774
G1 X142.926 Y103.924 E0.74996
M73 P4 R15
M73 Q4 S15
G1 X142.954 Y104.487 E0.01774
G1 X125.513 Y87.046 E0.77624
G1 X124.964 Y87.033 E0.01728
G1 X142.977 Y105.045 E0.80169
G1 X142.952 Y105.555 E0.01608
G1 X124.451 Y87.055 E0.82341
G1 X123.938 Y87.077 E0.01616
G1 X142.927 Y106.066 E0.84512
G1 X142.901 Y106.576 E0.01608
G1 X123.425 Y87.100 E0.86684
G1 X122.942 Y87.152 E0.01530
G1 X142.848 Y107.058 E0.88599
G1 X142.779 Y107.524 E0.01483
G1 X122.476 Y87.221 E0.90366
M73 P5 R15
M73 Q5 S15
G1 X122.010 Y87.290 E0.01483
G1 X142.710 Y107.990 E0.92133
G1 X142.641 Y108.456 E0.01483
G1 X121.544 Y87.359 E0.93900
G1 X121.111 Y87.462 E0.01398
G1 X142.538 Y108.889 E0.95365
G1 X142.431 Y109.317 E0.01389
G1 X120.683 Y87.569 E0.96792
G1 X120.255 Y87.677 E0.01389
G1 X142.323 Y109.745 E0.98220
G1 X142.216 Y110.173 E0.01389
G1 X119.827 Y87.784 E0.99648
M73 P6 R15
M73 Q6 S15
G1 X119.429 Y87.921 E0.01325
G1 X142.079 Y110.571 E1.00807
G1 X141.938 Y110.965 E0.01318
G1 X119.035 Y88.062 E1.01934
G1 X118.641 Y88.203 E0.01318
G1 X141.797 Y111.359 E1.03061
G1 X141.656 Y111.753 E0.01318
G1 X118.247 Y88.344 E1.04188
G1 X117.873 Y88.506 E0.01281
G1 X141.494 Y112.127 E1.05129
G1 X141.322 Y112.490 E0.01265
G1 X117.510 Y88.678 E1.05981
M73 P7 R15
M73 Q7 S15
G1 X117.147 Y88.850 E0.01265
G1 X141.150 Y112.853 E1.06833
M73 P7 R14
G1 X140.978 Y113.217 E0.01265
G1 X116.783 Y89.022 E1.07686
G1 X116.428 Y89.202 E0.01253
G1 X140.798 Y113.572 E1.08464
M73 Q7 S14
G1 X140.597 Y113.907 E0.01228
G1 X116.093 Y89.403 E1.09061
G1 X115.759 Y89.603 E0.01228
G1 X140.397 Y114.241 E1.09658
M73 P8 R14
M73 Q8 S14
G1 X140.196 Y114.576 E0.01228
G1 X115.424 Y89.804 E1.10254
G1 X115.089 Y90.004 E0.01228
G1 X139.996 Y114.911 E1.10851
G1 X139.774 Y115.224 E0.01209
G1 X114.776 Y90.226 E1.11261
G1 X114.468 Y90.454 E0.01204
G1 X139.546 Y115.532 E1.11615
G1 X139.318 Y115.839 E0.01204
G1 X114.161 Y90.682 E1.11968
M73 P9 R14
M73 Q9 S14
G1 X113.854 Y90.910 E0.01204
G1 X139.090 Y116.146 E1.12322
G1 X138.858 Y116.449 E0.01202
G1 X113.551 Y91.142 E1.12638
G1 X113.270 Y91.396 E0.01193
G1 X138.604 Y116.730 E1.12755
G1 X138.349 Y117.011 E0.01193
G1 X112.989 Y91.651 E1.12872
G1 X112.708 Y91.905 E0.01193
G1 X138.095 Y117.292 E1.12989
G1 X137.840 Y117.573 E0.01193
G1 X112.427 Y92.160 E1.13106
M73 P10 R14
M73 Q10 S14
G1 X112.160 Y92.427 E0.01191
G1 X137.573 Y117.840 E1.13106
G1 X137.292 Y118.095 E0.01193
G1 X111.905 Y92.708 E1.12989
G1 X111.651 Y92.989 E0.01193
G1 X137.011 Y118.349 E1.12872
G1 X136.730 Y118.604 E0.01193
G1 X111.396 Y93.270 E1.12755
G1 X111.142 Y93.551 E0.01193
G1 X136.449 Y118.858 E1.12638
M73 P11 R14
M73 Q11 S14
G1 X136.146 Y119.090 E0.01202
G1 X110.910 Y93.854 E1.12322
G1 X110.682 Y94.161 E0.01204
G1 X135.839 Y119.318 E1.11968
G1 X135.532 Y119.546 E0.01204
G1 X110.454 Y94.468 E1.11615
G1 X110.226 Y94.776 E0.01204
G1 X135.224 Y119.774 E1.11261
G1 X134.910 Y119.996 E0.01209
G1 X110.004 Y95.090 E1.10851
M73 P12 R14
M73 Q12 S14
G1 X109.804 Y95.424 E0.01228
G1 X134.576 Y120.196 E1.10254
G1 X134.241 Y120.397 E0.01228
G1 X109.603 Y95.759 E1.09658
G1 X109.403 Y96.094 E0.01228
G1 X133.906 Y120.597 E1.09061
G1 X133.572 Y120.798 E0.01228
G1 X109.202 Y96.428 E1.08464
G1 X109.022 Y96.783 E0.01253
G1 X133.217 Y120.978 E1.07686
M73 P13 R14
M73 Q13 S14
G1 X132.853 Y121.150 E0.01265
G1 X108.850 Y97.147 E1.06833
G1 X108.678 Y97.510 E0.01265
G1 X132.490 Y121.322 E1.05981
G1 X132.127 Y121.494 E0.01265
G1 X108.506 Y97.873 E1.05128
M73 P13 R13
G1 X108.344 Y98.247 E0.01281
G1 X131.753 Y121.656 E1.04188
G1 X131.359 Y121.797 E0.01318
G1 X108.203 Y98.641 E1.03061
G1 X108.062 Y99.035 E0.01318
G1 X130.965 Y121.938 E1.01934
M73 P14 R13
M73 Q14 S13
G1 X130.571 Y122.079 E0.01318
G1 X107.921 Y99.429 E1.00807
G1 X107.784 Y99.827 E0.01325
G1 X130.173 Y122.216 E0.99648
G1 X129.745 Y122.323 E0.01389
G1 X107.677 Y100.255 E0.98220
G1 X107.569 Y100.683 E0.01389
G1 X129.317 Y122.431 E0.96792
G1 X128.889 Y122.538 E0.01389
G1 X107.462 Y101.111 E0.95364
G1 X107.359 Y101.544 E0.01398
G1 X128.456 Y122.641 E0.93899
M73 P15 R13
M73 Q15 S13
G1 X127.990 Y122.710 E0.01483
G1 X107.290 Y102.010 E0.92133
G1 X107.221 Y102.476 E0.01483
G1 X127.524 Y122.779 E0.90366
G1 X127.058 Y122.848 E0.01483
G1 X107.152 Y102.942 E0.88599
G1 X107.099 Y103.424 E0.01527
G1 X126.576 Y122.901 E0.86689
G1 X126.066 Y122.927 E0.01608
G1 X107.073 Y103.934 E0.84529
G1 X107.048 Y104.445 E0.01608
G1 X125.555 Y122.952 E0.82370
M73 P16 R13
M73 Q16 S13
G1 X125.045 Y122.977 E0.01608
G1 X107.023 Y104.955 E0.80211
G1 X107.046 Y105.513 E0.01758
G1 X124.487 Y122.954 E0.77624
G1 X123.924 Y122.926 E0.01774
G1 X107.074 Y106.076 E0.74995
G1 X107.102 Y106.639 E0.01774
G1 X123.361 Y122.898 E0.72367
G1 X122.747 Y122.819 E0.01949
G1 X107.181 Y107.253 E0.69282
G1 X107.274 Y107.882 E0.02000
G1 X122.118 Y122.726 E0.66070
G1 X121.490 Y122.633 E0.02001
G1 X107.367 Y108.510 E0.62855
G1 X107.546 Y109.225 E0.02317
G1 X120.775 Y122.454 E0.58880
M73 P17 R13
G1 X120.061 Y122.275 E0.02317
G1 X107.725 Y109.939 E0.54905
M73 Q17 S13
G1 X107.795 Y110.219 E0.00909
G1 X107.977 Y110.725 E0.01693
G1 X119.275 Y122.023 E0.50285
G1 X118.441 Y121.725 E0.02786
G1 X108.275 Y111.559 E0.45248
G1 X108.390 Y111.880 E0.01074
G1 X108.685 Y112.504 E0.02173
G1 X117.496 Y121.315 E0.39214
G1 X116.466 Y120.821 E0.03595
G1 X109.179 Y113.534 E0.32430
G1 X109.980 Y114.870 E0.04903
G1 X115.130 Y120.020 E0.22918
G1 X115.011 Y119.949 E0.00434
G1 X113.594 Y118.898 E0.05553
G1 X112.294 Y117.720 E0.05521
G1 X110.634 Y116.059 E0.07391
; stop printing object Cushion Supporter.stl id:0 copy 0
M106 S84.15
;LAYER_CHANGE
;Z:0.35
;HEIGHT:0.15
;BEFORE_LAYER_CHANGE
G92 E0.0
;0.35


;WIPE_START
G1 F8640.000
G1 X112.294 Y117.720 E-0.54225
G1 X112.993 Y118.353 E-0.21775
;WIPE_END
G1 E-0.04000 F2100.000
G1 Z0.600 F10800.000
;AFTER_LAYER_CHANGE
;0.35
G1 X111.406 Y121.563
G1 Z0.350
G1 E0.80000 F2100.000
;TYPE:Skirt
;WIDTH:0.42
G1 F3000.000
G1 X109.848 Y120.150 E0.05086
G1 X108.436 Y118.592 E0.05085
G1 X107.183 Y116.903 E0.05086
G1 X106.102 Y115.099 E0.05085
G1 X105.203 Y113.199 E0.05086
G1 X104.495 Y111.219 E0.05086
G1 X103.984 Y109.179 E0.05085
G1 X103.676 Y107.099 E0.05086
G1 X103.573 Y104.999 E0.05086
G1 X103.676 Y102.898 E0.05085
G1 X103.985 Y100.818 E0.05086
G1 X104.496 Y98.779 E0.05086
G1 X105.204 Y96.799 E0.05085
G1 X106.104 Y94.898 E0.05086
G1 X107.185 Y93.095 E0.05086
G1 X108.437 Y91.406 E0.05085
G1 X109.850 Y89.848 E0.05086
G1 X111.408 Y88.436 E0.05085
G1 X113.097 Y87.183 E0.05086
G1 X114.901 Y86.102 E0.05085
G1 X116.801 Y85.203 E0.05086
G1 X118.781 Y84.495 E0.05086
G1 X120.821 Y83.984 E0.05085
G1 X122.901 Y83.676 E0.05086
G1 X125.005 Y83.573 E0.05095
G1 X127.102 Y83.676 E0.05076
G1 X129.182 Y83.985 E0.05086
G1 X131.221 Y84.496 E0.05086
G1 X133.201 Y85.204 E0.05085
G1 X135.102 Y86.104 E0.05086
G1 X136.905 Y87.185 E0.05086
G1 X138.594 Y88.437 E0.05085
G1 X140.152 Y89.850 E0.05086
G1 X141.564 Y91.408 E0.05085
G1 X142.817 Y93.097 E0.05086
G1 X143.898 Y94.901 E0.05085
G1 X144.797 Y96.801 E0.05086
G1 X145.505 Y98.781 E0.05086
G1 X146.016 Y100.821 E0.05085
G1 X146.324 Y102.901 E0.05086
G1 X146.427 Y105.001 E0.05086
G1 X146.324 Y107.102 E0.05085
